packages/calcite-ui-icons/icons/3d-building-parameter-24.svg

<?xml version="1.0" encoding="UTF-8"?><svg id="icons" xmlns="http://www.w3.org/2000/svg" viewBox="0 0 24 24"><rect width="24" height="24" style="fill:none;"/><path d="M3.00684,19.02832l.0788-4.16846,4.95319,2.20294c.0238-.3363.06158-.68683.10931-1.04559l-4.31543-1.91974,2.16693-.97131,2.47681,1.11328c.07971-.33441.16907-.65967.26819-.97565l-1.74463-.78436V4.34058l5,1.87524v4.90204c.18042.0932.33472.2345.43164.4212.07532.14502.10577.30328.10577.46094h.46259v-5.784l5-1.87537v7.65936h1V3.37402L12.5.93652l-6.5,2.4375v8.65527l-3.89453,1.74707-.0123,5.91797,6.55173,2.71783c-.11151-.39008-.20917-.79132-.29218-1.19952l-5.34589-2.18433ZM16.94116,3.67029l-4.43335,1.66272-.02734-.00879-.00586.00195-4.41571-1.65588,4.4411-1.66541,4.44116,1.66541ZM20.01294,22h-1.31311l-2.19983-3.08063-2.19983,3.08063h-1.31311l2.85638-4-2.85638-4h1.31311l2.19983,3.08057,2.19983-3.08057h1.31311l-2.85638,4,2.85638,4ZM23.95001,18c0,1.84906-.44946,4.56879-1.30286,6h-1.19147c.96393-1.37097,1.54431-4.10852,1.54431-6s-.58038-4.62903-1.54431-6h1.19147c.85339,1.43121,1.30286,4.15094,1.30286,6ZM11.54431,24h-1.19147c-.85339-1.43121-1.35284-4.15094-1.35284-6s.49945-4.56879,1.35284-6h1.19147c-.96393,1.37097-1.54431,4.10852-1.54431,6s.58038,4.62903,1.54431,6Z"/></svg>

<svg xmlns="http://www.w3.org/2000/svg" viewBox="0 0 24 24"><path fill="none" d="M0 0h24v24H0z"/><path d="M3.007 19.028l.079-4.168 4.953 2.203c.024-.336.061-.687.11-1.046l-4.316-1.92L6 13.127l2.476 1.112c.08-.334.17-.66.269-.975L7 12.479V4.341l5 1.875v4.902c.18.093.335.234.432.421a.992.992 0 0 1 .105.461H13V6.216l5-1.875V12h1V3.374L12.5.937 6 3.374v8.655l-3.895 1.747-.012 5.918 6.552 2.718c-.112-.39-.21-.791-.292-1.2l-5.346-2.184zM16.94 3.67l-4.433 1.663-.028-.009-.005.002L8.059 3.67 12.5 2.005l4.441 1.665zM20.013 22H18.7l-2.2-3.08L14.3 22h-1.313l2.856-4-2.856-4H14.3l2.2 3.08L18.7 14h1.313l-2.856 4 2.856 4zm3.937-4c0 1.85-.45 4.569-1.303 6h-1.191C22.42 22.629 23 19.891 23 18s-.58-4.629-1.544-6h1.191c.854 1.431 1.303 4.15 1.303 6zm-12.406 6h-1.191C9.499 22.569 9 19.85 9 18s.5-4.569 1.353-6h1.191C10.58 13.371 10 16.109 10 18s.58 4.629 1.544 6z"/></svg>
